build/img/icon-clock.svg

<svg width="20" height="20" viewBox="0 0 20 20" fill="none" xmlns="http://www.w3.org/2000/svg">
<path d="M10 -1.94285e-06C4.48653 -1.94285e-06 0 4.48652 0 10C0 15.5135 4.48653 20 10 20C15.5135 20 20 15.5135 20 10C20 4.48652 15.5135 -1.94285e-06 10 -1.94285e-06ZM10 1.57895C14.6601 1.57895 18.4211 5.33985 18.4211 10C18.4211 14.6601 14.6601 18.421 10 18.421C5.33987 18.421 1.57895 14.6601 1.57895 10C1.57895 5.33985 5.33987 1.57895 10 1.57895ZM10 2.89473C9.564 2.89473 9.21053 3.24821 9.21053 3.68421V10C9.21053 10.292 9.36963 10.546 9.60526 10.6826L14.6217 13.5773C14.9993 13.7953 15.481 13.6671 15.699 13.2895C15.9171 12.9119 15.7888 12.4302 15.4112 12.2122L10.7895 9.54771V3.68421C10.7895 3.24821 10.436 2.89473 10 2.89473Z" fill="white"/>
</svg>

<svg width="20" height="20" fill="none" xmlns="http://www.w3.org/2000/svg"><path d="M10 0C4.487 0 0 4.487 0 10c0 5.514 4.487 10 10 10 5.514 0 10-4.486 10-10 0-5.513-4.486-10-10-10zm0 1.579A8.41 8.41 0 0118.421 10 8.41 8.41 0 0110 18.421 8.41 8.41 0 011.579 10 8.41 8.41 0 0110 1.579zm0 1.316a.79.79 0 00-.79.79V10c0 .292.16.546.395.683l5.017 2.894a.788.788 0 10.79-1.365l-4.623-2.664V3.684a.79.79 0 00-.789-.79z" fill="#fff"/></svg>
